X:355
T:Bourree languedocienne 2
R:bourree 3 temps
C:trad.
A:Languedoc
O:France
Z:S. Piron
M:3/8
L:1/16
Q:1/4=100
K:C
cd|:e2c2A2|G4Bc|d2BdBd|c2A2cd|e2c2A2|G4Bc|d2B2G2|A4 cd:|
|:e2cece|f2dfdf|e2edcB|c2A2cd|e2cece|f2dfdf|e2edcB|A4cd:||
